X:1
T:Jesus Will Walk with Me
T:Jesus Will Walk with Me
T:Haldor Lillenas
T:Haldor Lillenas, 1922
T:Public Domain Courtesy of the Cyber Hymnal™
T:Public Domain Courtesy of the Cyber Hymnal™
C:Haldor Lillenas
Z:Public Domain
Z:Courtesy of the Cyber Hymnal™
%%score ( 1 2 ) ( 3 4 )
L:1/8
Q:1/4=95
M:6/8
K:Db
V:1 treble 
V:2 treble 
V:3 bass 
V:4 bass 
V:1
 [DF][DF][DF] [DF][D=E][DF] | [FA][FA][FA] [GB] [FA]2 | [EG][EG][EG] [CG][CF][CG] | %3
w: 1.~Je- sus will walk with me|down thru the val- ley,|Je- sus will walk with me|
w: 2.~Je- sus will walk with me|when I am tempt- ed,|Giv- ing me strength as my|
w: 3.~Je- sus will walk with me,|guard- ing me ev- er,|Giv- ing me vic- tory thru|
w: 4.~Je- sus will walk with me|in life’s fair morn- ing,|And when the sha- dows of|
 [GB][FA][EG] [DF]3 | [FA][FA][FA] [FA][=E=G][FA] | [GB][GB][GB] [GB] [Gd]2 | %6
w: o- ver the plain;|When in the sha- dow or|when in the sun- shine,|
w: need may de- mand;|When in af- flict- ion His|pre- sence is near me,|
w: storm and thru strife;|He is my com- fort- er,|coun- sel- lor, lead- er,|
w: ev- ening must come;|Liv- ing or dy- ing, He|will not for- sake me.|
 [FA][FA][FA] [Fd][DF][DF] | [CA][CG][CE] D3 ||"^Refrain" [Fd]4 [FB][Fd] | %9
w: If He goes with me I|shall not com- plain.||
w: I am up- held by His|al- might- y hand.||
w: O- ver the un- ev- en|jour- ney of life.||
w: Je- sus will walk with me|all the way home.||
 [Gc]2 [GB] [GA][GB][FA] | [EG]2 [=DF] [EG][CA][CG] | [DF]2 [D=E] [DF]2 [FA] | %12
w: |||
w: |||
w: |||
w: |||
 [Fd][Fd][Fd] [Fd][Gc][Ad] | [Ge][Gd][GB] [=Ed][Ec][EB] | [FA]D[CG] [DF]2 [CE] | D3- [A,D]2 z |] %16
w: ||||
w: ||||
w: ||||
w: ||||
V:2
 x6 | x6 | x6 | x6 | x6 | x6 | x6 | x3 D3 || x6 | x6 | x6 | x6 | x6 | x6 | x D x4 | D2 B, x3 |] %16
V:3
 [D,A,][D,A,][D,A,] [D,A,][D,=G,][D,A,] | [D,D][D,D][D,D] [D,D] [D,D]2 | %2
w: ~ ~ ~ ~ ~ ~|~ ~ ~ ~ ~|
 [A,C][A,C][A,C] [E,A,][E,A,][E,A,] | [A,,A,][B,,A,][C,A,] [D,A,]3 | %4
w: ~ ~ ~ ~ ~ ~|~ ~ ~ ~|
 [D,D][D,D][D,D] [D,D][D,D][D,D] | [G,D][G,D][G,D] [G,D] [G,B,]2 | [A,D][A,D][A,D] A,A,[F,A,] | %7
w: ~ ~ ~ ~ ~ ~|~ ~ ~ ~ ~|~ ~ ~ ~ ~ ~|
 [E,A,]A,[A,,G,] [D,F,]3 || [D,A,]4 [D,A,][D,A,] | [E,A,]2 [E,A,] [A,C][A,C][A,D] | %10
w: ~ ~ ~ ~|Je- sus will|walk with me, He will|
 [A,,C]2 [A,,=B,] [A,,C][A,,E,][A,,A,] | [D,A,]2 [D,=G,] [D,A,]2 [D,D] | %12
w: talk with me; He will|walk with me; In|
 [D,A,][D,A,][D,A,] [D,A,][E,A,][F,D] | [G,B,][G,B,][G,D] [=G,B,][G,C][G,D] | %14
w: joy or in sor- row, to-|day and to- mor- row, I|
 [A,D][F,A,][E,A,] A,2 [A,,G,] | (F,2 G, [D,F,]2) z |] %16
w: know He will walk with|me. * *|
V:4
 x6 | x6 | x6 | x6 | x6 | x6 | x3 A,A, x | x A, x4 || x6 | x6 | x6 | x6 | x6 | x6 | x3 A,2 x | %15
 D,3- x3 |] %16

